X: 40877
T: Tribute To Michael Dwyer
R: reel
M: 4/4
K: Eminor
EBGB AFGF|EBGB ADFA|Be (3efe defd|^cABG AFGF|
EB,EF GABG|ADFA d2 ed|^cA A2 GE E2|B,EDF E2E2:|
G3 A BA (3Bcd|edBA GE E2|G2 BG FAde|fgfd e3 f|
gfed cBAG|FGAF Dfed|^cA A2 GE E2|B,EDF E2E2:|

